app/dist/common/images/beijing-sinnet-tec.svg

<svg height="18" viewBox="0 0 18 18" width="18" xmlns="http://www.w3.org/2000/svg"><path d="m0 0h18v18h-18z" fill="#f0f3fa"/><path d="m7.89 5h2.44c-2.08 2.37-2.33 3.2-2.33 3.31 0 .12.05.25.26.25.75 0 1.46-.45 2.51-.45s1.23.87 1.23 1.4c0 1.15-1.2 2.8-1.8 3.49h-3.63c1.95-2.17 2.73-3.49 2.73-3.67 0-.15-.24-.1-.36-.06-.5.16-1.6.49-2 .49-.49 0-.93-.28-.93-.98-.01-1.3 1.25-3.06 1.88-3.78z" fill="#0a2365"/><g fill="#99c243"><path d="m10.5 5 .03.16c.07.36.24.67.47.84-.23.17-.4.48-.47.84l-.03.16-.03-.16a1.34 1.34 0 0 0 -.47-.84c.23-.17.4-.48.47-.84z"/><path d="m15 7.87c0-1.49-2.37-1.87-3.56-1.87-.05 0-.11.02 0 .1 1.9.11 2.61.9 2.61 1.67 0 2.17-5 3.56-7.32 3.56-2.31 0-3.1-.97-3.1-1.64 0-.68.35-1.34 1.26-2.02-.46.19-1.89 1.21-1.89 2.4 0 1.2 1.8 1.93 3.73 1.93 4.34 0 8.27-2.27 8.27-4.13z"/></g></svg>

<!-- by TradingView --><svg width="18" height="18" viewBox="0 0 18 18" xmlns="http://www.w3.org/2000/svg"><path fill="#F0F3FA" d="M0 0h18v18H0z"/><path d="M7.89 5h2.44C8.25 7.37 8 8.2 8 8.31c0 .12.05.25.26.25.75 0 1.46-.45 2.51-.45 1.05 0 1.23.87 1.23 1.4 0 1.15-1.2 2.8-1.8 3.49H6.57C8.52 10.83 9.3 9.51 9.3 9.33c0-.15-.24-.1-.36-.06-.5.16-1.6.49-2 .49-.49 0-.93-.28-.93-.98C6 7.48 7.26 5.72 7.89 5Z" fill="#0A2365"/><path d="m10.5 5 .03.16c.07.36.24.67.47.84-.23.17-.4.48-.47.84L10.5 7l-.03-.16A1.34 1.34 0 0 0 10 6c.23-.17.4-.48.47-.84L10.5 5Z" fill="#99C243"/><path d="M15 7.87C15 6.38 12.63 6 11.44 6c-.05 0-.11.02 0 .1 1.9.11 2.61.9 2.61 1.67 0 2.17-5 3.56-7.32 3.56-2.31 0-3.1-.97-3.1-1.64 0-.68.35-1.34 1.26-2.02C4.43 7.86 3 8.88 3 10.07 3 11.27 4.8 12 6.73 12 11.07 12 15 9.73 15 7.87Z" fill="#99C243"/></svg>
